X: 26012
T: Mazurca Di Zavattarello
R: mazurka
M: 3/4
K: Dmajor
A/|d>A B>A F>G|A2 A2- A>A|d>A B>A F>A|G2 G2- G>B|
e>d c>B A>B|c2 c>E c>E|B2 B>E B>E|A2 A2- A>A|
d>A B>A F>G|A2 A2- A>A|de/d/ c>d e>d|B2 B2- B>c|
e>d c>e d>c|d>A F>A B>A|c>B A>G F>E|D2 D2||
F>A|f4 F>A|d4 F>A|d2 ^d2 e2|c4 E>A|
e4 E>A|c4 E>A|c>B A>^G B>=G|F2- F>D F>A|
f4 F>A|d4 F>A|d2 ^d2 e2|B6|
e>d c>e d>c|d>A F>A B>A|c>B (3ABA (3GFE|D2 D2- D3/2||

